img/svg_icons/ok.svg

<svg width="10" height="16" viewBox="0 0 10 16" fill="none" xmlns="http://www.w3.org/2000/svg">
<path d="M0.147348 8.58731C-0.261319 9.39064 0.202681 9.77465 1.26135 10.4306C2.16135 10.9866 3.40468 11.19 4.20335 11.2713C3.87601 11.586 5.37601 10.1433 1.05601 14.2987C0.140015 15.1767 1.61468 16.5853 2.53001 15.726L5.00801 13.336C5.95668 14.2487 6.86601 15.1233 7.48601 15.7293C8.40201 16.592 9.87601 15.1953 8.97001 14.302C8.90201 14.2373 5.61201 11.0813 5.81268 11.2746C6.62135 11.1933 7.84602 10.978 8.73535 10.434L8.73468 10.4333C9.79335 9.77398 10.2573 9.39064 9.85468 8.58731C9.61135 8.13131 8.95535 7.74998 8.08201 8.40931C8.08201 8.40931 6.90268 9.31264 5.00068 9.31264C3.09801 9.31264 1.91935 8.40931 1.91935 8.40931C1.04668 7.74664 0.388015 8.13131 0.147348 8.58731V8.58731Z" fill="#BABABA"/>
<path d="M4.99933 8.09466C7.318 8.09466 9.21133 6.28266 9.21133 4.052C9.21133 1.812 7.318 0 4.99933 0C2.68 0 0.786667 1.812 0.786667 4.052C0.786667 6.28266 2.68 8.09466 4.99933 8.09466ZM4.99933 2.05267C6.13867 2.05267 7.068 2.94666 7.068 4.052C7.068 5.148 6.13867 6.042 4.99933 6.042C3.86 6.042 2.93067 5.148 2.93067 4.052C2.93 2.946 3.85933 2.05267 4.99933 2.05267V2.05267Z" fill="#BABABA"/>
</svg>

<svg width="10" height="16" fill="none" xmlns="http://www.w3.org/2000/svg"><path d="M.147 8.587c-.408.804.056 1.188 1.114 1.844.9.556 2.144.759 2.942.84L1.056 14.3c-.916.878.559 2.286 1.474 1.427l2.478-2.39c.949.913 1.858 1.787 2.478 2.393.916.863 2.39-.534 1.484-1.427l-3.157-3.027c.808-.082 2.033-.297 2.922-.841 1.058-.66 1.522-1.043 1.12-1.847-.244-.456-.9-.837-1.773-.178 0 0-1.18.904-3.081.904-1.903 0-3.082-.904-3.082-.904-.872-.662-1.531-.278-1.772.178z" fill="#BABABA"/><path d="M5 8.095c2.318 0 4.211-1.812 4.211-4.043C9.211 1.812 7.318 0 5 0S.787 1.812.787 4.052c0 2.23 1.893 4.043 4.212 4.043zm0-6.042c1.139 0 2.068.894 2.068 1.999 0 1.096-.93 1.99-2.069 1.99-1.139 0-2.068-.894-2.068-1.99-.001-1.106.928-2 2.068-2z" fill="#BABABA"/></svg>
